X: 3211
T: Dunse Ding's.    or Mr Sharps Favourite.    a Reel.
%R: reel
B: Niel Gow & Sons "A Third Collection of Strathspey Reels, etc." v.3 p.21 #1 (top 2 staffs continued from p.20)
Z: 2022 John Chambers <jc:trillian.mit.edu>
M: C|
L: 1/8
K: A
% - - - - - - - - - -
V: 1 staves=2
|:\
ce- ef/g/ aecA | ce-eg a3e | ce- ef/g/ aecA | B(=GGB) g2-gB :| (c/B/A) eA fAeA | (c/B/A) ec a2-ae |
(c/B/A) ec fde=c | B=G-GB g2-gB || (c/B/A) ec fded | (c/B/A) ec a2-ae | (c/B/A) ec fde=c | B=G-GB g2-gB |]
% - - - - - - - - - -
% Voice 2 preserves the staff layout in the book.
V: 2 clef=bass middle=d
|:\
a2a2 a2a2 | a2a2 a2a2 | a2a2 a2a2 | =g2g2 g2g2 :|\
a2[a2c'2] [a2d'2][a2c'2]  |  a2a2 a2a2 |
a2[a2c'2] [a2d'2][a2=c'2] | =g2g2 g2g2 ||\
a2[a2c'2] [a2d'2][a2c'2]  |  a2a2 a2a2 |\
a2[a2c'2] [a2d'2][a2=c'2] | =g2g2 g2g2 |]


